server/api/resources/providerLogos/azure-64.svg

<?xml version="1.0" encoding="UTF-8"?>
<svg width="192px" height="64px" viewBox="0 0 192 64" version="1.1" xmlns="http://www.w3.org/2000/svg" xmlns:xlink="http://www.w3.org/1999/xlink">
    <g id="Symbols" stroke="none" stroke-width="1" fill="none" fill-rule="evenodd">
        <g id="Provider/Azure/azure-64" fill="#2075B8">
            <path d="M29.7580328,31.4859299 L37.9845438,8.60051047 L65,56 L14.8487509,56 L45.561059,50.5074171 L29.7580328,31.4859299 Z M16.5363029,21.3893246 L35.8310261,5 L14.9072506,50.4253676 L14.9072506,50.3862965 L0,50.3862965 L16.5363029,21.3893246 Z M191.842016,36.3348624 L176.436013,36.3348624 C176.293365,38.3256881 177.006606,40.3165138 178.433088,41.8807339 C179.85957,43.1605505 181.713996,44.0137615 183.568422,43.8715596 C185.993441,43.8715596 188.41846,43.0183486 190.272886,41.4541284 L190.272886,44.7247706 C187.990515,46.146789 185.422848,47 182.712533,46.8577982 C180.002218,47 177.291902,45.8623853 175.437476,43.8715596 C173.58305,41.4541284 172.584513,38.6100917 172.869809,35.6238532 C172.869809,33.6330275 173.297754,31.5 174.153643,29.6513761 C175.009532,27.9449541 176.150717,26.5229358 177.862495,25.5275229 C179.431625,24.5321101 181.143403,24.1055046 182.997829,24.1055046 C185.422848,23.9633028 187.847867,24.9587156 189.559645,26.8073394 C191.271423,28.940367 192.127312,31.7844037 191.984664,34.4862385 L191.842016,36.3348624 Z M188.275811,33.4908257 C188.41846,31.7844037 187.847867,30.2201835 186.84933,28.7981651 C185.850793,27.6605505 184.424311,27.0917431 182.855181,27.0917431 C181.286051,27.0917431 179.716921,27.6605505 178.718384,28.7981651 C177.577199,30.0779817 176.72131,31.6422018 176.578662,33.3486239 L188.275811,33.4908257 Z M170.730087,28.087156 C169.874198,27.5183486 169.018309,27.3761468 168.019771,27.3761468 C166.450642,27.3761468 165.02416,28.2293578 164.310919,29.5091743 C163.312382,31.2155963 162.741789,33.206422 162.884437,35.0550459 L162.884437,46.146789 L159.460881,46.146789 L159.460881,24.5321101 L162.884437,24.5321101 L162.884437,28.940367 L163.027086,28.940367 C163.45503,27.6605505 164.168271,26.3807339 165.166808,25.3853211 C166.735938,24.1055046 168.733012,23.6788991 170.730087,24.3899083 L170.730087,28.087156 Z M152.471121,46.4311927 L149.047565,46.4311927 L149.047565,43.0183486 L148.904917,43.0183486 C147.621083,45.5779817 145.053416,47 142.200453,47 C137.065119,47 134.354804,43.8715596 134.354804,37.7568807 L134.354804,24.8165138 L137.77836,24.8165138 L137.77836,37.3302752 C137.77836,41.8807339 139.490138,44.1559633 143.056342,44.1559633 C144.625472,44.1559633 146.194602,43.587156 147.193139,42.3073394 C148.334324,40.8853211 148.904917,39.1788991 148.904917,37.4724771 L148.904917,24.9587156 L152.328473,24.9587156 L152.471121,46.4311927 Z M130.360655,25.6697248 L117.52232,43.4449541 L130.360655,43.4449541 L130.360655,46.2889908 L112.386986,46.2889908 L112.386986,45.293578 L125.225321,27.6605505 L113.528171,27.6605505 L113.528171,24.8165138 L130.360655,24.8165138 L130.360655,25.6697248 Z M111.103152,46.4311927 L107.109003,46.4311927 L103.828095,37.8990826 L90.9897603,37.8990826 L87.9941487,46.4311927 L84,46.4311927 L95.5545017,16 L99.2633541,16 L111.103152,46.4311927 Z M102.829558,34.6284404 L97.9795206,21.6880734 C97.8368724,20.9770642 97.551576,20.266055 97.4089279,19.5550459 L97.2662797,19.5550459 L96.8383352,21.6880734 L91.9882975,34.6284404 L102.829558,34.6284404 Z" id="Combined-Shape"></path>
        </g>
    </g>
</svg>

<?xml version="1.0" encoding="UTF-8" standalone="no"?>
<svg xmlns:dc="http://purl.org/dc/elements/1.1/" xmlns:cc="http://creativecommons.org/ns#" xmlns:rdf="http://www.w3.org/1999/02/22-rdf-syntax-ns#" xmlns:svg="http://www.w3.org/2000/svg" xmlns="http://www.w3.org/2000/svg" id="svg3533" version="1.1" viewBox="0 0 192 64" height="64px" width="192px">
  <defs id="defs3537">
    <linearGradient id="e399c19f-b68f-429d-b176-18c2117ff73c" x1="-1032.172" x2="-1059.213" y1="145.312" y2="65.426" gradientTransform="matrix(1,0,0,-1,1075,158)" gradientUnits="userSpaceOnUse">
      <stop offset="0" stop-color="#114a8b" id="stop4157" />
      <stop offset="1" stop-color="#0669bc" id="stop4159" />
    </linearGradient>
    <linearGradient id="ac2a6fc2-ca48-4327-9a3c-d4dcc3256e15" x1="-1023.725" x2="-1029.98" y1="108.083" y2="105.968" gradientTransform="matrix(1,0,0,-1,1075,158)" gradientUnits="userSpaceOnUse">
      <stop offset="0" stop-opacity=".3" id="stop4162" />
      <stop offset=".071" stop-opacity=".2" id="stop4164" />
      <stop offset=".321" stop-opacity=".1" id="stop4166" />
      <stop offset=".623" stop-opacity=".05" id="stop4168" />
      <stop offset="1" stop-opacity="0" id="stop4170" />
    </linearGradient>
    <linearGradient id="a7fee970-a784-4bb1-af8d-63d18e5f7db9" x1="-1027.165" x2="-997.482" y1="147.642" y2="68.561" gradientTransform="matrix(1,0,0,-1,1075,158)" gradientUnits="userSpaceOnUse">
      <stop offset="0" stop-color="#3ccbf4" id="stop4173" />
      <stop offset="1" stop-color="#2892df" id="stop4175" />
    </linearGradient>
  </defs>
  <g fill-rule="evenodd" fill="none" stroke-width="1" stroke="none" id="Symbols">
    <g fill="#0078D4" id="Provider/Azure/azure-64">
      <path id="Combined-Shape" d="m 191.84202,36.334862 h -15.40601 c -0.14265,1.990826 0.5706,3.981652 1.99708,5.545872 1.42648,1.279816 3.28091,2.133027 5.13533,1.990826 2.42502,0 4.85004,-0.853211 6.70447,-2.417432 v 3.270643 C 187.99051,46.146789 185.42285,47 182.71253,46.857798 180.00222,47 177.2919,45.862385 175.43748,43.87156 c -1.85443,-2.417432 -2.85297,-5.261468 -2.56767,-8.247707 0,-1.990826 0.42794,-4.123853 1.28383,-5.972477 0.85589,-1.706422 1.99708,-3.12844 3.70885,-4.123853 1.56913,-0.995413 3.28091,-1.422018 5.13534,-1.422018 2.42502,-0.142202 4.85004,0.853211 6.56181,2.701834 1.71178,2.133028 2.56767,4.977065 2.42502,7.678899 z m -3.56621,-2.844036 c 0.14265,-1.706422 -0.42794,-3.270643 -1.42648,-4.692661 -0.99854,-1.137615 -2.42502,-1.706422 -3.99415,-1.706422 -1.56913,0 -3.13826,0.568807 -4.1368,1.706422 -1.14118,1.279817 -1.99707,2.844037 -2.13972,4.550459 z m -17.54572,-5.40367 c -0.85589,-0.568807 -1.71178,-0.711009 -2.71032,-0.711009 -1.56913,0 -2.99561,0.853211 -3.70885,2.133027 -0.99854,1.706422 -1.56913,3.697248 -1.42648,5.545872 v 11.091743 h -3.42356 V 24.53211 h 3.42356 v 4.408257 h 0.14265 c 0.42794,-1.279817 1.14118,-2.559633 2.13972,-3.555046 1.56913,-1.279816 3.5662,-1.706422 5.56328,-0.995413 z m -18.25897,18.344037 h -3.42356 v -3.412844 h -0.14264 C 147.62108,45.577982 145.05342,47 142.20045,47 137.06512,47 134.3548,43.87156 134.3548,37.756881 V 24.816514 h 3.42356 v 12.513761 c 0,4.550459 1.71178,6.825688 5.27798,6.825688 1.56913,0 3.13826,-0.568807 4.1368,-1.848624 1.14118,-1.422018 1.71178,-3.12844 1.71178,-4.834862 V 24.958716 h 3.42355 z M 130.36065,25.669725 117.52232,43.444954 h 12.83833 v 2.844037 H 112.38699 V 45.293578 L 125.22532,27.66055 h -11.69715 v -2.844036 h 16.83248 z m -19.2575,20.761468 H 107.109 l -3.2809,-8.53211 H 90.98976 l -2.995611,8.53211 H 84 L 95.554502,16 h 3.708852 z M 102.82956,34.62844 97.979521,21.688073 C 97.836872,20.977064 97.551576,20.266055 97.408928,19.555046 H 97.26628 l -0.427945,2.133027 -4.850037,12.940367 z" />
    </g>
    <g transform="matrix(0.61497418,0,0,0.61497418,-2.0800677,1.0526977)" id="g4210">
      <path style="fill:url(#e399c19f-b68f-429d-b176-18c2117ff73c)" fill="url(#e399c19f-b68f-429d-b176-18c2117ff73c)" d="m 33.338,6.544 h 26.038 l -27.03,80.087 a 4.152,4.152 0 0 1 -3.933,2.824 H 8.149 A 4.145,4.145 0 0 1 4.221,83.985 L 29.404,9.368 a 4.152,4.152 0 0 1 3.934,-2.825 z" id="path4180" />
      <path fill="#0078d4" d="M 71.175,60.261 H 29.885 A 1.911,1.911 0 0 0 28.58,63.57 l 26.532,24.764 a 4.171,4.171 0 0 0 2.846,1.121 h 23.38 z" id="path4182" />
      <path style="fill:url(#ac2a6fc2-ca48-4327-9a3c-d4dcc3256e15)" fill="url(#ac2a6fc2-ca48-4327-9a3c-d4dcc3256e15)" d="M 33.338,6.544 A 4.118,4.118 0 0 0 29.395,9.423 L 4.252,83.917 a 4.14,4.14 0 0 0 3.908,5.538 h 20.787 a 4.443,4.443 0 0 0 3.41,-2.9 l 5.014,-14.777 17.91,16.705 a 4.237,4.237 0 0 0 2.666,0.972 H 81.24 L 71.024,60.261 41.243,60.268 59.47,6.544 Z" id="path4184" />
      <path style="fill:url(#a7fee970-a784-4bb1-af8d-63d18e5f7db9)" fill="url(#a7fee970-a784-4bb1-af8d-63d18e5f7db9)" d="M 66.595,9.364 A 4.145,4.145 0 0 0 62.667,6.544 H 33.648 a 4.146,4.146 0 0 1 3.928,2.82 l 25.184,74.62 a 4.146,4.146 0 0 1 -3.928,5.472 h 29.02 a 4.146,4.146 0 0 0 3.927,-5.472 z" id="path4186" />
    </g>
  </g>
</svg>
